static/img/kroki/2df5344c12adad7aff3aded3c82ec91c.svg

<?xml version="1.0" encoding="us-ascii" standalone="no"?><svg xmlns="http://www.w3.org/2000/svg" xmlns:xlink="http://www.w3.org/1999/xlink" contentStyleType="text/css" height="1033px" preserveAspectRatio="none" style="width:534px;height:1033px;" version="1.1" viewBox="0 0 534 1033" width="534px" zoomAndPan="magnify"><defs/><g><!--class azure_security_server_vulnerability_assessments_setting--><g id="elem_azure_security_server_vulnerability_assessments_setting"><rect codeLine="23" fill="#3D176E" height="100.3828" id="azure_security_server_vulnerability_assessments_setting" rx="2.5" ry="2.5" style="stroke:#000D19;stroke-width:0.5;" width="520" x="7" y="660.14"/><ellipse cx="22" cy="680.0345" fill="#ADD1B2" rx="11" ry="11" style="stroke:#181818;stroke-width:1.0;"/><path d="M24.9688,685.6752 Q24.3906,685.972 23.75,686.1127 Q23.1094,686.2689 22.4063,686.2689 Q19.9063,686.2689 18.5781,684.6283 Q17.2656,682.972 17.2656,679.847 Q17.2656,676.722 18.5781,675.0658 Q19.9063,673.4095 22.4063,673.4095 Q23.1094,673.4095 23.75,673.5658 Q24.4063,673.722 24.9688,674.0189 L24.9688,676.7377 Q24.3438,676.1595 23.75,675.8939 Q23.1563,675.6127 22.5313,675.6127 Q21.1875,675.6127 20.5,676.6908 Q19.8125,677.7533 19.8125,679.847 Q19.8125,681.9408 20.5,683.0189 Q21.1875,684.0814 22.5313,684.0814 Q23.1563,684.0814 23.75,683.8158 Q24.3438,683.5345 24.9688,682.9564 L24.9688,685.6752 Z " fill="#000000"/><text fill="#D9B8FF" font-family="Helvetica" font-size="17" lengthAdjust="spacing" textLength="478" x="41" y="685.9198">azure_security_server_vulnerability_assessments_setting</text><line style="stroke:#000D19;stroke-width:0.5;" x1="8" x2="526" y1="699.9291" y2="699.9291"/><text fill="#D9B8FF" font-family="sans-serif" font-size="14" font-weight="bold" lengthAdjust="spacing" textLength="95" x="18" y="721.9242">setting_kind</text><text fill="#D9B8FF" font-family="sans-serif" font-size="14" lengthAdjust="spacing" textLength="48" x="113" y="721.9242">: string</text><text fill="#D9B8FF" font-family="sans-serif" font-size="14" font-weight="bold" lengthAdjust="spacing" textLength="98" x="18" y="748.2211">system_data</text><text fill="#D9B8FF" font-family="sans-serif" font-size="14" lengthAdjust="spacing" textLength="142" x="116" y="748.2211">: azure_system_data</text></g><!--class azure_system_data--><g id="elem_azure_system_data"><rect codeLine="27" fill="#3D176E" height="205.5703" id="azure_system_data" rx="2.5" ry="2.5" style="stroke:#000D19;stroke-width:0.5;" width="241" x="146.5" y="820.52"/><ellipse cx="178.6" cy="840.4145" fill="#ADD1B2" rx="11" ry="11" style="stroke:#181818;stroke-width:1.0;"/><path d="M181.5688,846.0552 Q180.9906,846.352 180.35,846.4927 Q179.7094,846.6489 179.0063,846.6489 Q176.5063,846.6489 175.1781,845.0083 Q173.8656,843.352 173.8656,840.227 Q173.8656,837.102 175.1781,835.4458 Q176.5063,833.7895 179.0063,833.7895 Q179.7094,833.7895 180.35,833.9458 Q181.0063,834.102 181.5688,834.3989 L181.5688,837.1177 Q180.9438,836.5395 180.35,836.2739 Q179.7563,835.9927 179.1313,835.9927 Q177.7875,835.9927 177.1,837.0708 Q176.4125,838.1333 176.4125,840.227 Q176.4125,842.3208 177.1,843.3989 Q177.7875,844.4614 179.1313,844.4614 Q179.7563,844.4614 180.35,844.1958 Q180.9438,843.9145 181.5688,843.3364 L181.5688,846.0552 Z " fill="#000000"/><text fill="#D9B8FF" font-family="Helvetica" font-size="17" lengthAdjust="spacing" textLength="161" x="201.4" y="846.2998">azure_system_data</text><line style="stroke:#000D19;stroke-width:0.5;" x1="147.5" x2="386.5" y1="860.3091" y2="860.3091"/><text fill="#D9B8FF" font-family="sans-serif" font-size="14" font-weight="bold" lengthAdjust="spacing" textLength="83" x="157.5" y="882.3042">created_at</text><text fill="#D9B8FF" font-family="sans-serif" font-size="14" lengthAdjust="spacing" textLength="70" x="240.5" y="882.3042">: datetime</text><text fill="#D9B8FF" font-family="sans-serif" font-size="14" font-weight="bold" lengthAdjust="spacing" textLength="87" x="157.5" y="908.6011">created_by</text><text fill="#D9B8FF" font-family="sans-serif" font-size="14" lengthAdjust="spacing" textLength="48" x="244.5" y="908.6011">: string</text><text fill="#D9B8FF" font-family="sans-serif" font-size="14" font-weight="bold" lengthAdjust="spacing" textLength="129" x="157.5" y="934.8979">created_by_type</text><text fill="#D9B8FF" font-family="sans-serif" font-size="14" lengthAdjust="spacing" textLength="48" x="286.5" y="934.8979">: string</text><text fill="#D9B8FF" font-family="sans-serif" font-size="14" font-weight="bold" lengthAdjust="spacing" textLength="125" x="157.5" y="961.1948">last_modified_at</text><text fill="#D9B8FF" font-family="sans-serif" font-size="14" lengthAdjust="spacing" textLength="70" x="282.5" y="961.1948">: datetime</text><text fill="#D9B8FF" font-family="sans-serif" font-size="14" font-weight="bold" lengthAdjust="spacing" textLength="129" x="157.5" y="987.4917">last_modified_by</text><text fill="#D9B8FF" font-family="sans-serif" font-size="14" lengthAdjust="spacing" textLength="48" x="286.5" y="987.4917">: string</text><text fill="#D9B8FF" font-family="sans-serif" font-size="14" font-weight="bold" lengthAdjust="spacing" textLength="171" x="157.5" y="1013.7886">last_modified_by_type</text><text fill="#D9B8FF" font-family="sans-serif" font-size="14" lengthAdjust="spacing" textLength="48" x="328.5" y="1013.7886">: string</text></g><!--class microsoft_resource--><g id="elem_microsoft_resource"><rect codeLine="35" fill="#3D176E" height="100.3828" id="microsoft_resource" rx="2.5" ry="2.5" style="stroke:#000D19;stroke-width:0.5;" width="214" x="160" y="438.75"/><ellipse cx="181.3" cy="458.6445" fill="#ADD1B2" rx="11" ry="11" style="stroke:#181818;stroke-width:1.0;"/><path d="M184.2688,464.2852 Q183.6906,464.582 183.05,464.7227 Q182.4094,464.8789 181.7063,464.8789 Q179.2063,464.8789 177.8781,463.2383 Q176.5656,461.582 176.5656,458.457 Q176.5656,455.332 177.8781,453.6758 Q179.2063,452.0195 181.7063,452.0195 Q182.4094,452.0195 183.05,452.1758 Q183.7063,452.332 184.2688,452.6289 L184.2688,455.3477 Q183.6438,454.7695 183.05,454.5039 Q182.4563,454.2227 181.8313,454.2227 Q180.4875,454.2227 179.8,455.3008 Q179.1125,456.3633 179.1125,458.457 Q179.1125,460.5508 179.8,461.6289 Q180.4875,462.6914 181.8313,462.6914 Q182.4563,462.6914 183.05,462.4258 Q183.6438,462.1445 184.2688,461.5664 L184.2688,464.2852 Z " fill="#000000"/><text fill="#D9B8FF" font-family="Helvetica" font-size="17" lengthAdjust="spacing" textLength="158" x="201.7" y="464.5298">microsoft_resource</text><line style="stroke:#000D19;stroke-width:0.5;" x1="161" x2="373" y1="478.5391" y2="478.5391"/><text fill="#D9B8FF" font-family="sans-serif" font-size="14" font-weight="bold" lengthAdjust="spacing" textLength="35" x="171" y="500.5342">etag</text><text fill="#D9B8FF" font-family="sans-serif" font-size="14" lengthAdjust="spacing" textLength="48" x="206" y="500.5342">: string</text><text fill="#D9B8FF" font-family="sans-serif" font-size="14" font-weight="bold" lengthAdjust="spacing" textLength="144" x="171" y="526.8311">provisioning_state</text><text fill="#D9B8FF" font-family="sans-serif" font-size="14" lengthAdjust="spacing" textLength="48" x="315" y="526.8311">: string</text></g><!--class resource--><g id="elem_resource"><rect codeLine="39" fill="#3D176E" height="310.7578" id="resource" rx="2.5" ry="2.5" style="stroke:#000D19;stroke-width:0.5;" width="227" x="153.5" y="7"/><ellipse cx="222.25" cy="26.8945" fill="#ADD1B2" rx="11" ry="11" style="stroke:#181818;stroke-width:1.0;"/><path d="M225.2188,32.5352 Q224.6406,32.832 224,32.9727 Q223.3594,33.1289 222.6563,33.1289 Q220.1563,33.1289 218.8281,31.4883 Q217.5156,29.832 217.5156,26.707 Q217.5156,23.582 218.8281,21.9258 Q220.1563,20.2695 222.6563,20.2695 Q223.3594,20.2695 224,20.4258 Q224.6563,20.582 225.2188,20.8789 L225.2188,23.5977 Q224.5938,23.0195 224,22.7539 Q223.4063,22.4727 222.7813,22.4727 Q221.4375,22.4727 220.75,23.5508 Q220.0625,24.6133 220.0625,26.707 Q220.0625,28.8008 220.75,29.8789 Q221.4375,30.9414 222.7813,30.9414 Q223.4063,30.9414 224,30.6758 Q224.5938,30.3945 225.2188,29.8164 L225.2188,32.5352 Z " fill="#000000"/><text fill="#D9B8FF" font-family="Helvetica" font-size="17" lengthAdjust="spacing" textLength="71" x="247.75" y="32.7798">resource</text><line style="stroke:#000D19;stroke-width:0.5;" x1="154.5" x2="379.5" y1="46.7891" y2="46.7891"/><text fill="#D9B8FF" font-family="sans-serif" font-size="14" font-weight="bold" lengthAdjust="spacing" textLength="29" x="164.5" y="68.7842">age</text><text fill="#D9B8FF" font-family="sans-serif" font-size="14" lengthAdjust="spacing" textLength="66" x="193.5" y="68.7842">: duration</text><text fill="#D9B8FF" font-family="sans-serif" font-size="14" font-weight="bold" lengthAdjust="spacing" textLength="43" x="164.5" y="95.0811">atime</text><text fill="#D9B8FF" font-family="sans-serif" font-size="14" lengthAdjust="spacing" textLength="70" x="207.5" y="95.0811">: datetime</text><text fill="#D9B8FF" font-family="sans-serif" font-size="14" font-weight="bold" lengthAdjust="spacing" textLength="43" x="164.5" y="121.3779">ctime</text><text fill="#D9B8FF" font-family="sans-serif" font-size="14" lengthAdjust="spacing" textLength="70" x="207.5" y="121.3779">: datetime</text><text fill="#D9B8FF" font-family="sans-serif" font-size="14" font-weight="bold" lengthAdjust="spacing" textLength="14" x="164.5" y="147.6748">id</text><text fill="#D9B8FF" font-family="sans-serif" font-size="14" lengthAdjust="spacing" textLength="48" x="178.5" y="147.6748">: string</text><text fill="#D9B8FF" font-family="sans-serif" font-size="14" font-weight="bold" lengthAdjust="spacing" textLength="33" x="164.5" y="173.9717">kind</text><text fill="#D9B8FF" font-family="sans-serif" font-size="14" lengthAdjust="spacing" textLength="48" x="197.5" y="173.9717">: string</text><text fill="#D9B8FF" font-family="sans-serif" font-size="14" font-weight="bold" lengthAdjust="spacing" textLength="90" x="164.5" y="200.2686">last_access</text><text fill="#D9B8FF" font-family="sans-serif" font-size="14" lengthAdjust="spacing" textLength="66" x="254.5" y="200.2686">: duration</text><text fill="#D9B8FF" font-family="sans-serif" font-size="14" font-weight="bold" lengthAdjust="spacing" textLength="90" x="164.5" y="226.5654">last_update</text><text fill="#D9B8FF" font-family="sans-serif" font-size="14" lengthAdjust="spacing" textLength="66" x="254.5" y="226.5654">: duration</text><text fill="#D9B8FF" font-family="sans-serif" font-size="14" font-weight="bold" lengthAdjust="spacing" textLength="48" x="164.5" y="252.8623">mtime</text><text fill="#D9B8FF" font-family="sans-serif" font-size="14" lengthAdjust="spacing" textLength="70" x="212.5" y="252.8623">: datetime</text><text fill="#D9B8FF" font-family="sans-serif" font-size="14" font-weight="bold" lengthAdjust="spacing" textLength="43" x="164.5" y="279.1592">name</text><text fill="#D9B8FF" font-family="sans-serif" font-size="14" lengthAdjust="spacing" textLength="48" x="207.5" y="279.1592">: string</text><text fill="#D9B8FF" font-family="sans-serif" font-size="14" font-weight="bold" lengthAdjust="spacing" textLength="34" x="164.5" y="305.4561">tags</text><text fill="#D9B8FF" font-family="sans-serif" font-size="14" lengthAdjust="spacing" textLength="171" x="198.5" y="305.4561">: dictionary[string, string]</text></g><!--link azure_security_server_vulnerability_assessments_setting to azure_system_data--><g id="link_azure_security_server_vulnerability_assessments_setting_azure_system_data"><path codeLine="51" d="M267,760.79 C267,778.7 267,793.63 267,814.39 " fill="none" id="azure_security_server_vulnerability_assessments_setting-to-azure_system_data" style="stroke:#FFAF37;stroke-width:2.0;"/><polygon fill="#FFAF37" points="267,820.39,271,811.39,267,815.39,263,811.39,267,820.39" style="stroke:#FFAF37;stroke-width:2.0;"/></g><!--reverse link microsoft_resource to azure_security_server_vulnerability_assessments_setting--><g id="link_microsoft_resource_azure_security_server_vulnerability_assessments_setting"><path codeLine="52" d="M267,557.45 C267,593.47 267,624.03 267,660 " fill="none" id="microsoft_resource-backto-azure_security_server_vulnerability_assessments_setting" style="stroke:#FFAF37;stroke-width:2.0;"/><polygon fill="none" points="267,539.45,261,557.45,273,557.45,267,539.45" style="stroke:#FFAF37;stroke-width:2.0;"/></g><!--reverse link resource to microsoft_resource--><g id="link_resource_microsoft_resource"><path codeLine="53" d="M267,336.06 C267,379.65 267,405.98 267,438.42 " fill="none" id="resource-backto-microsoft_resource" style="stroke:#FFAF37;stroke-width:2.0;"/><polygon fill="none" points="267,318.06,261,336.06,273,336.06,267,318.06" style="stroke:#FFAF37;stroke-width:2.0;"/></g><!--SRC=[dL9TQzim57tthp3qBSoGh6nfnXXqWR6zbB7kRGnpBLqd8fPahgvJt6t_VPBZDhRijj0t-vwZyt6blPAOegwvJJNg0iabxg1C3GGwlIQoTrjRMKeloXBAotKCVh66NoJSWCRqArP7P2KWPlpSAt4mw5pwTW1z1d7OaMsCFCapWN4UGiC3rhO2vwwPIHKDuo2Ct1HNPHapOz6BIxbQlyS9pP94wYdBvLAkDZ7bHQjdUpyoRjKzfglXqcuiuoJcnA9ZFPioC0OX9qKVy2SpVWSfbTcbxmQp7wTCP916yzizI7iNs2LKRcZZ60ajjpLk9wrmSoNBzIpvsrFaH8JLfN3V4EOEHKEAM_z1HwJys5G-6HIg2aFFyuzA-mVZF84vnFkJB1RzT-vjvMBnmRkI_mr0wmFeN093cFSUvs7oR-n-HZfTGGYCCWSEf_tORrJZ02ZQaTrvd8VA8ypRSAwjLAMQKnp3aMuCnkeFBRGIP9qjEITqjY61NGras8tqQh97vPGrOMcEVOePiP44x3gAR0ZOdmkJ43nUoynCZMzaSaLTDn32Nspaq25DBVju0qJF-1ZGuuNxqYT59S8neFRN2NlJStxxggzzTLdsQUOrpUp_uzyiorxxk9D8PggV_0S0]--></g></svg>

<svg xmlns="http://www.w3.org/2000/svg" width="534" height="1033" viewBox="0 0 534 1033"><rect width="520" height="100.383" x="7" y="660.14" fill="#3D176E" rx="2.5" ry="2.5" style="stroke:#000d19;stroke-width:.5"/><circle cx="22" cy="680.034" r="11" fill="#ADD1B2" style="stroke:#181818;stroke-width:1"/><path d="M24.969 685.675q-.578.297-1.219.438-.64.156-1.344.156-2.5 0-3.828-1.64-1.312-1.657-1.312-4.782t1.312-4.781q1.328-1.657 3.828-1.657.703 0 1.344.157.656.156 1.219.453v2.719q-.625-.579-1.219-.844-.594-.281-1.219-.281-1.343 0-2.031 1.078-.687 1.062-.687 3.156t.687 3.172q.688 1.062 2.031 1.062.625 0 1.219-.265.594-.282 1.219-.86z"/><text x="41" y="685.92" fill="#D9B8FF" font-family="Helvetica" font-size="17" textLength="478">azure_security_server_vulnerability_assessments_setting</text><path d="M8 699.929h518" style="stroke:#000d19;stroke-width:.5"/><text x="18" y="721.924" fill="#D9B8FF" font-family="sans-serif" font-size="14" font-weight="bold" textLength="95">setting_kind</text><text x="113" y="721.924" fill="#D9B8FF" font-family="sans-serif" font-size="14" textLength="48">: string</text><text x="18" y="748.221" fill="#D9B8FF" font-family="sans-serif" font-size="14" font-weight="bold" textLength="98">system_data</text><text x="116" y="748.221" fill="#D9B8FF" font-family="sans-serif" font-size="14" textLength="142">: azure_system_data</text><rect width="241" height="205.57" x="146.5" y="820.52" fill="#3D176E" rx="2.5" ry="2.5" style="stroke:#000d19;stroke-width:.5"/><circle cx="178.6" cy="840.414" r="11" fill="#ADD1B2" style="stroke:#181818;stroke-width:1"/><path d="M181.569 846.055q-.578.297-1.219.438-.64.156-1.344.156-2.5 0-3.828-1.64-1.312-1.657-1.312-4.782t1.312-4.781q1.328-1.657 3.828-1.657.703 0 1.344.157.656.156 1.219.453v2.719q-.625-.579-1.219-.844-.594-.281-1.219-.281-1.344 0-2.031 1.078-.687 1.062-.687 3.156t.687 3.172q.688 1.062 2.031 1.062.625 0 1.219-.265.594-.282 1.219-.86z"/><text x="201.4" y="846.3" fill="#D9B8FF" font-family="Helvetica" font-size="17" textLength="161">azure_system_data</text><path d="M147.5 860.309h239" style="stroke:#000d19;stroke-width:.5"/><text x="157.5" y="882.304" fill="#D9B8FF" font-family="sans-serif" font-size="14" font-weight="bold" textLength="83">created_at</text><text x="240.5" y="882.304" fill="#D9B8FF" font-family="sans-serif" font-size="14" textLength="70">: datetime</text><text x="157.5" y="908.601" fill="#D9B8FF" font-family="sans-serif" font-size="14" font-weight="bold" textLength="87">created_by</text><text x="244.5" y="908.601" fill="#D9B8FF" font-family="sans-serif" font-size="14" textLength="48">: string</text><text x="157.5" y="934.898" fill="#D9B8FF" font-family="sans-serif" font-size="14" font-weight="bold" textLength="129">created_by_type</text><text x="286.5" y="934.898" fill="#D9B8FF" font-family="sans-serif" font-size="14" textLength="48">: string</text><text x="157.5" y="961.195" fill="#D9B8FF" font-family="sans-serif" font-size="14" font-weight="bold" textLength="125">last_modified_at</text><text x="282.5" y="961.195" fill="#D9B8FF" font-family="sans-serif" font-size="14" textLength="70">: datetime</text><text x="157.5" y="987.492" fill="#D9B8FF" font-family="sans-serif" font-size="14" font-weight="bold" textLength="129">last_modified_by</text><text x="286.5" y="987.492" fill="#D9B8FF" font-family="sans-serif" font-size="14" textLength="48">: string</text><text x="157.5" y="1013.789" fill="#D9B8FF" font-family="sans-serif" font-size="14" font-weight="bold" textLength="171">last_modified_by_type</text><text x="328.5" y="1013.789" fill="#D9B8FF" font-family="sans-serif" font-size="14" textLength="48">: string</text><rect width="214" height="100.383" x="160" y="438.75" fill="#3D176E" rx="2.5" ry="2.5" style="stroke:#000d19;stroke-width:.5"/><circle cx="181.3" cy="458.644" r="11" fill="#ADD1B2" style="stroke:#181818;stroke-width:1"/><path d="M184.269 464.285q-.578.297-1.219.438-.64.156-1.344.156-2.5 0-3.828-1.64-1.312-1.657-1.312-4.782t1.312-4.781q1.328-1.656 3.828-1.656.703 0 1.344.156.656.156 1.219.453v2.719q-.625-.579-1.219-.844-.594-.281-1.219-.281-1.343 0-2.031 1.078-.687 1.062-.687 3.156t.687 3.172q.688 1.062 2.031 1.062.625 0 1.219-.265.594-.281 1.219-.86z"/><text x="201.7" y="464.53" fill="#D9B8FF" font-family="Helvetica" font-size="17" textLength="158">microsoft_resource</text><path d="M161 478.539h212" style="stroke:#000d19;stroke-width:.5"/><text x="171" y="500.534" fill="#D9B8FF" font-family="sans-serif" font-size="14" font-weight="bold" textLength="35">etag</text><text x="206" y="500.534" fill="#D9B8FF" font-family="sans-serif" font-size="14" textLength="48">: string</text><text x="171" y="526.831" fill="#D9B8FF" font-family="sans-serif" font-size="14" font-weight="bold" textLength="144">provisioning_state</text><text x="315" y="526.831" fill="#D9B8FF" font-family="sans-serif" font-size="14" textLength="48">: string</text><rect width="227" height="310.758" x="153.5" y="7" fill="#3D176E" rx="2.5" ry="2.5" style="stroke:#000d19;stroke-width:.5"/><circle cx="222.25" cy="26.895" r="11" fill="#ADD1B2" style="stroke:#181818;stroke-width:1"/><path d="M225.219 32.535q-.578.297-1.219.438-.64.156-1.344.156-2.5 0-3.828-1.64-1.312-1.657-1.312-4.782t1.312-4.781q1.328-1.656 3.828-1.656.703 0 1.344.156.656.156 1.219.453v2.719q-.625-.578-1.219-.844-.594-.281-1.219-.281-1.344 0-2.031 1.078-.687 1.062-.687 3.156t.687 3.172q.688 1.062 2.031 1.062.625 0 1.219-.265.594-.281 1.219-.86z"/><text x="247.75" y="32.78" fill="#D9B8FF" font-family="Helvetica" font-size="17" textLength="71">resource</text><path d="M154.5 46.789h225" style="stroke:#000d19;stroke-width:.5"/><text x="164.5" y="68.784" fill="#D9B8FF" font-family="sans-serif" font-size="14" font-weight="bold" textLength="29">age</text><text x="193.5" y="68.784" fill="#D9B8FF" font-family="sans-serif" font-size="14" textLength="66">: duration</text><text x="164.5" y="95.081" fill="#D9B8FF" font-family="sans-serif" font-size="14" font-weight="bold" textLength="43">atime</text><text x="207.5" y="95.081" fill="#D9B8FF" font-family="sans-serif" font-size="14" textLength="70">: datetime</text><text x="164.5" y="121.378" fill="#D9B8FF" font-family="sans-serif" font-size="14" font-weight="bold" textLength="43">ctime</text><text x="207.5" y="121.378" fill="#D9B8FF" font-family="sans-serif" font-size="14" textLength="70">: datetime</text><text x="164.5" y="147.675" fill="#D9B8FF" font-family="sans-serif" font-size="14" font-weight="bold" textLength="14">id</text><text x="178.5" y="147.675" fill="#D9B8FF" font-family="sans-serif" font-size="14" textLength="48">: string</text><text x="164.5" y="173.972" fill="#D9B8FF" font-family="sans-serif" font-size="14" font-weight="bold" textLength="33">kind</text><text x="197.5" y="173.972" fill="#D9B8FF" font-family="sans-serif" font-size="14" textLength="48">: string</text><text x="164.5" y="200.269" fill="#D9B8FF" font-family="sans-serif" font-size="14" font-weight="bold" textLength="90">last_access</text><text x="254.5" y="200.269" fill="#D9B8FF" font-family="sans-serif" font-size="14" textLength="66">: duration</text><text x="164.5" y="226.565" fill="#D9B8FF" font-family="sans-serif" font-size="14" font-weight="bold" textLength="90">last_update</text><text x="254.5" y="226.565" fill="#D9B8FF" font-family="sans-serif" font-size="14" textLength="66">: duration</text><text x="164.5" y="252.862" fill="#D9B8FF" font-family="sans-serif" font-size="14" font-weight="bold" textLength="48">mtime</text><text x="212.5" y="252.862" fill="#D9B8FF" font-family="sans-serif" font-size="14" textLength="70">: datetime</text><text x="164.5" y="279.159" fill="#D9B8FF" font-family="sans-serif" font-size="14" font-weight="bold" textLength="43">name</text><text x="207.5" y="279.159" fill="#D9B8FF" font-family="sans-serif" font-size="14" textLength="48">: string</text><text x="164.5" y="305.456" fill="#D9B8FF" font-family="sans-serif" font-size="14" font-weight="bold" textLength="34">tags</text><text x="198.5" y="305.456" fill="#D9B8FF" font-family="sans-serif" font-size="14" textLength="171">: dictionary[string, string]</text><path fill="none" d="M267 760.79v53.6" style="stroke:#ffaf37;stroke-width:2"/><path fill="#FFAF37" d="m267 820.39 4-9-4 4-4-4z" style="stroke:#ffaf37;stroke-width:2"/><path fill="none" d="M267 557.45V660m0-120.55-6 18h12zm0-203.39v102.36m0-120.36-6 18h12z" style="stroke:#ffaf37;stroke-width:2"/></svg>
